dist/img/common/svg/ic_tg-bg(1).svg

<svg width="46" height="46" viewBox="0 0 46 46" fill="none" xmlns="http://www.w3.org/2000/svg">
<rect width="46" height="46" rx="22.5" fill="#0088CC"/>
<path d="M21.0633 25.3957L20.7656 29.6505C21.1916 29.6505 21.3761 29.4646 21.5974 29.2412L23.5947 27.3022L27.7335 30.3811C28.4926 30.811 29.0273 30.5847 29.2321 29.6718L31.9488 16.7399C32.1896 15.6 31.5437 15.1535 30.8042 15.4332L14.8357 21.6439C13.7459 22.0736 13.7624 22.6908 14.6504 22.9704L18.7329 24.2604L28.2158 18.2326C28.662 17.9324 29.0678 18.0985 28.734 18.3987L21.0633 25.3957Z" fill="white"/>
</svg>

<svg width="46" height="46" viewBox="0 0 46 46" fill="none" xmlns="http://www.w3.org/2000/svg"><rect width="46" height="46" rx="22.5" fill="#08C"/><path d="M21.063 25.396l-.297 4.255c.426 0 .61-.186.831-.41l1.998-1.939 4.139 3.08c.759.429 1.293.203 1.498-.71L31.95 16.74c.24-1.14-.405-1.586-1.145-1.307l-15.968 6.21c-1.09.43-1.074 1.048-.186 1.327l4.083 1.29 9.483-6.027c.446-.3.852-.134.518.166l-7.67 6.997z" fill="#fff"/></svg>
